!!!COM: Schiørring, Niels
!!!CDT: 1743-1798
!!!OPR@@DA: Choral-Bog
!!!ONM: 96
!!!OTL@@DA: Vil Gud vor Herre ey med os ſtaae
**kern	**fb	**kern	**kern	**kern	**kern	**kern	**kern	**kern
*part6	*part6	*part6	*part5	*part5	*part4	*part3	*part2	*part1
*staff8	*	*staff7	*staff6	*staff5	*staff4	*staff3	*staff2	*staff1
*clefF4	*	*clefC1	*clefF4	*clefC1	*clefF4	*clefC4	*clefC3	*clefC1
*mclefF4	*	*mclefG2	*mclefF4	*mclefG2	*mclefF4	*mclefGv2	*mclefG2	*mclefG2
*k[b-]	*	*k[b-]	*k[b-]	*k[b-]	*k[b-]	*k[b-]	*k[b-]	*k[b-]
*F:	*	*F:	*F:	*F:	*F:	*F:	*F:	*F:
*M4/4	*	*M4/4	*M4/4	*M4/4	*M4/4	*M4/4	*M4/4	*M4/4
*met(c)	*	*met(c)	*met(c)	*met(c)	*met(c)	*met(c)	*met(c)	*met(c)
*MM180	*	*MM180	*MM180	*MM180	*MM180	*MM180	*MM180	*MM180
*	*above	*	*	*	*	*	*	*
*	*slash	*	*	*	*	*	*	*
*	*	*	*^	*^	*	*	*	*
=1	=1	=1	=1	=1	=1	=1	=1	=1	=1	=1
2G	.	2b-	2d	2G	2b-	2g	2G	2d	2g	2b-
=2	=2	=2	=2	=2	=2	=2	=2	=2	=2	=2
2D	6	2b-	2d	2D	2b-	2f	2D	2B-	2f	2b-
2E-X	.	2g	2B-	2E-X	2g	2e-X	2E-X	2B-	2e-X	2g
=3	=3	=3	=3	=3	=3	=3	=3	=3	=3	=3
2D	6	2b-	2B-	2D	2b-	2f	2D	2B-	2f	2b-
2BB-	.	2dd	[2B-	2BB-	2dd	2f	2BB-	[2B-	2f	2dd
=4	=4	=4	=4	=4	=4	=4	=4	=4	=4	=4
2E-X	6 5	2cc	2B-]	2E-X	2cc	2g	2E-X	2B-]	2g	2cc
2F	.	2cc	2A	2F	2cc	2f	2F	2A	(4f	2cc
.	.	.	.	.	.	.	.	.	4e-X)	.
=5	=5	=5	=5	=5	=5	=5	=5	=5	=5	=5
*	*	*	*	*	*	*^	*	*	*	*
2BB-	.	2b-	2B-	2BB-	2b-	2f	2d\	2BB-	2B-	2d	2b-
*	*	*	*	*	*	*v	*v	*	*	*	*
2GG	.	2b-	2ryy	2GG	2d	2g	2GG	2d	2g	2b-
=6	=6	=6	=6	=6	=6	=6	=6	=6	=6	=6
2D	8 #	2a	4d	2D	2a	2f#X	2D	(4d	2f#X	2a
.	7	.	4c	.	.	.	.	4c)	.	.
2E-X	.	2g	2B-	2E-X	2g	2g	2E-X	2B-	2g	2g
=7	=7	=7	=7	=7	=7	=7	=7	=7	=7	=7
2D	6 4	2b-	1ryy	2D	2d	2g	2D	2d	2g	2b-
2C	-	2cc	.	2C	2e-X	[2g	2C	2e-X	[2g	2cc
=8	=8	=8	=8	=8	=8	=8	=8	=8	=8	=8
1D	4	1a	2d	1D	1a	2g]	1D	(2d	(2g]	1a
.	#	.	2c	.	.	2f#X	.	2c)	2f#X)	.
=9	=9	=9	=9	=9	=9	=9	=9	=9	=9	=9
2GG	.	2g	2ryy	2GG	2B-	2d	2GG	2B-	2g	2g
=10:|!	=10:|!	=10:|!	=10:|!	=10:|!	=10:|!	=10:|!	=10:|!	=10:|!	=10:|!	=10:|!
2A	6	2cc	2c	2A	2cc	2f	2A	2c	2f	2cc
=11	=11	=11	=11	=11	=11	=11	=11	=11	=11	=11
*	*	*	*	*	*	*^	*	*	*	*
2B-	.	2dd	2B-	2B-	2dd	2b-	2f\	2B-	2B-	2f	2dd
*	*	*	*	*	*	*v	*v	*	*	*	*
2E	7 5	2dd	2ryy	2E	2g	2b-	2E	2B-	2g	2dd
=12	=12	=12	=12	=12	=12	=12	=12	=12	=12	=12
2F	.	2a	2c	2F	2a	2a	2F	2A	2c	2a
2F#X	-7 5	2cc	2e-X	2F#X	2cc	[2a	2F#X	[2A	2e-X	2cc
=13	=13	=13	=13	=13	=13	=13	=13	=13	=13	=13
2G	9	2b-	1d	1G	2b-	2a]	2G	2A]	2d	2b-
2GG	8	2b-	.	.	2b-	2g	2GG	2G	2d	2b-
=14	=14	=14	=14	=14	=14	=14	=14	=14	=14	=14
2D	#	2a	2d	2D	2a	2f#X	2D	2F#X	2d	2a
2G	.	2b-	2d	2G	2b-	2g	2G	2G	2d	2b-
=15	=15	=15	=15	=15	=15	=15	=15	=15	=15	=15
2E	6	2cc	1c	2E	2cc	2g	2E	2G	2g	2cc
2E-X	6	2g	.	2E-X	2g	2g	2E-X	2c	2g	2g
=16	=16	=16	=16	=16	=16	=16	=16	=16	=16	=16
4D	6	2b-	4d	4D	2b-	4f	(4D	(4d	(4f	2b-
4Eni	-r5	.	2.c	4Eni	.	4g	4Eni)	4c)	4g)	.
2F	.	2a	.	2F	2a	2f	2F	2c	[2f	2a
=17	=17	=17	=17	=17	=17	=17	=17	=17	=17	=17
2BB-	6 5	2g	2ryy	2BB-	2d	2.f	2BB-	2d	2f]	2g
2C	4	2g	4c	2C	2g	.	2C	(4c	(4f	2g
.	3	.	4B-	.	.	4e	.	4B-)	4e)	.
=18	=18	=18	=18	=18	=18	=18	=18	=18	=18	=18
*	*	*	*	*	*	*	*^	*	*	*
2FF	.	2f	2A	2F	2f	2c	2F	2FF	2A	2f	2f
*	*	*	*	*	*	*	*v	*v	*	*	*
2E	#6\ -r5	2b-	2c#X	2E	2b-	2g	2E	2c#X	2g	2b-
=19	=19	=19	=19	=19	=19	=19	=19	=19	=19	=19
2F#X	nr5	2a	2cni	2F#X	2a	1d	2F#X	2ci	2d	2a
2G	.	2g	2B-	2G	2g	.	2G	2B-	2d	2g
=20	=20	=20	=20	=20	=20	=20	=20	=20	=20	=20
2E-X	.	2b-	1ryy	2E-X	2e-X	2g	2E-X	2B-	2g	2b-
2C	-	2cc	.	2C	2e-	[2g	2C	2e-X	[2g	2cc
=21	=21	=21	=21	=21	=21	=21	=21	=21	=21	=21
1D	4	1a	2d	1D	1a	2g]	1D	(2d	(2g]	1a
.	#	.	2c	.	.	2f#X	.	2c)	2f#X)	.
=22	=22	=22	=22	=22	=22	=22	=22	=22	=22	=22
2GG	.	2g	2ryy	2GG	2B-	2d	2GG	2B-	2g	2g
*	*	*	*v	*v	*	*	*	*	*	*
*	*	*	*	*v	*v	*	*	*	*
==	==	==	==	==	==	==	==	==
*-	*-	*-	*-	*-	*-	*-	*-	*-
!!!system-decoration: {(s1,s2,s3,s4)}{(s5,s6)}{(s7,s8)}
!!!RDF**kern: i = editorial accidental
!!!RDF**kern: > = above
!!!RDF**kern: < = below
!!!AGN: chorale
!!!EED: Derek Remeš
!!!EED2: Victor Phan
!!!END: 2023/11/28
!!!ENC: Wolfgang Drescher
!!!EEV: 2023/12/11
!!!title: @{ONM}. @{OTL}
!!!verovio: mnumInterval 1